logos/braze.svg

<?xml version="1.0" encoding="UTF-8"?>
<svg width="512px" height="237px" viewBox="0 0 512 237" version="1.1" xmlns="http://www.w3.org/2000/svg" preserveAspectRatio="xMidYMid">
    <title>Braze</title>
    <g>
        <path d="M511.254317,140.302565 C511.254317,140.302565 506.19225,133.202855 504.628776,131.178029 C503.53947,129.851639 502.213081,128.294572 498.784972,130.633376 C491.076532,135.778743 482.426164,140.533242 471.757377,140.533242 C463.574769,140.533242 456.487875,138.431522 451.188723,133.9077 C453.450634,132.888879 455.78303,131.799573 458.121833,130.473184 C470.744963,123.68745 481.253559,114.953782 486.322034,109.885307 C510.863449,85.3182615 503.231902,48.6663309 473.237551,48.6663309 C444.95405,48.6663309 422.680954,76.1937249 422.680954,106.848067 C422.680954,111.442374 423.219199,118.074323 425.167134,125.01384 C423.533176,125.795577 412.313328,131.254921 398.914868,138.662199 C386.291738,129.223686 366.658606,133.43994 366.658606,133.43994 C384.888457,107.469612 412.39022,66.9922962 414.729023,63.6410795 C416.439874,61.2189764 416.132305,58.8801731 414.491939,55.1380879 C412.39022,50.6142657 410.288501,49.8325287 407.481937,49.8325287 L350.376691,49.8325287 C348.512056,49.8325287 347.031882,50.6911579 346.480822,52.7992846 C345.936169,54.9010037 344.769971,62.1544977 344.539294,64.5766008 C344.30221,67.0755961 346.641014,68.6326623 349.056709,68.6326623 L390.424692,68.6326623 L353.029471,122.207276 C352.792387,122.44436 352.56171,122.675037 352.324626,122.989013 C346.878098,130.864052 338.535298,141.859631 328.564948,141.859631 C322.330275,141.859631 314.621836,137.412701 314.621836,122.828821 C314.621836,108.558918 320.388748,78.3787439 324.592186,54.8241116 C325.059947,52.3251163 324.207725,49.8325287 320.151664,49.8325287 L310.027529,49.8325287 C307.688726,49.8325287 306.362336,51.2422183 306.054767,53.2670453 C305.426815,56.8553462 304.80527,60.3603472 304.260617,63.7948638 C299.275442,54.2025666 291.253026,48.7368154 279.719202,48.7368154 C268.967115,48.7368154 258.529004,52.7223925 249.961935,61.2958685 C228.611545,82.6654819 232.661199,117.52967 214.20708,136.009419 C206.255149,143.967758 197.290804,141.545655 197.290804,125.872469 C197.290804,108.014265 204.147022,88.0479333 211.945169,69.1773152 C213.342043,65.8196907 211.861869,63.0131268 210.381695,60.9114077 C208.279976,57.8677596 207.498239,56.3042857 203.762561,56.3042857 C197.918757,56.3042857 188.646844,59.9758864 170.032533,59.9758864 C166.059771,59.9758864 162.317686,59.8156944 158.883169,59.5850179 C159.120253,56.778454 159.120253,54.9074114 159.203553,54.2025666 C159.357337,51.549787 158.421816,49.9094209 155.615252,49.9094209 L146.112663,49.9094209 C142.684554,49.9094209 141.825925,51.549787 141.435056,54.2794588 C139.801098,65.6659064 136.763857,107.546504 115.727443,128.525249 C113.311748,130.940944 111.831574,131.722681 111.831574,131.722681 C117.053833,121.502431 119.860397,108.091157 119.860397,97.409554 C119.860397,67.4600569 102.1752,48.9034151 79.8956956,48.9034151 C73.11637,48.9034151 65.9461759,51.0820263 59.1732579,55.2918722 C62.2873905,37.0427991 65.1708466,19.9663314 66.1832601,14.1930116 C67.0418892,9.27832089 65.3246309,6.7857333 64.0046488,4.75449869 C61.8901143,1.4865818 60.0318871,1.42108547e-14 57.2189155,1.42108547e-14 L24.3411085,1.42108547e-14 C22.4700659,1.42108547e-14 21.0731916,1.3263898 20.5990233,3.43451657 C20.0543705,5.850212 18.8881727,12.2450768 18.7343884,15.2054251 C18.5741964,17.7813125 20.3683468,18.7937259 22.4700659,18.7937259 L46.4668282,18.7937259 C42.6542585,42.3547659 35.33028,87.9774488 33.1452611,99.4343809 C30.3515125,114.018261 19.983886,131.876466 2.54218057,138.277738 C0.36356931,139.059475 -0.495059833,141.084302 0.280269468,143.429513 C1.06200645,145.768316 4.09924685,151.849205 5.03476816,153.406271 C5.97028946,155.046637 7.9951164,156.059051 9.86615901,155.437506 C18.9009881,152.233666 27.2309723,147.094706 33.7796214,140.539649 C35.4135799,138.905691 36.9770538,137.11154 38.4572279,135.157198 C46.2425594,152.784726 62.2937982,159.185999 78.5693058,159.185999 C97.0362401,159.185999 116.983348,152.707834 131.003353,138.745499 C147.368568,122.367468 154.141486,95.3847271 157.101834,76.2065403 C161.151488,76.7447854 165.752202,77.2125461 170.192725,77.2125461 C181.406165,77.2125461 190.83827,74.7968507 190.83827,74.7968507 C190.83827,74.7968507 179.54153,104.900132 179.54153,127.051482 C179.54153,152.086289 191.536707,159.179591 204.70449,159.179591 C218.333626,159.179591 227.919515,148.965749 234.692433,136.252911 C236.486584,140.225673 239.139363,144.903279 242.721257,148.49158 C248.872629,154.655769 256.510584,159.179591 267.57024,159.179591 C280.19337,159.179591 291.02235,151.926097 298.737197,140.699841 C300.134071,145.45434 302.242198,149.350209 305.125654,152.233666 C309.015116,156.14235 316.18531,159.179591 325.066354,159.179591 C340.412748,159.179591 349.370685,147.639359 373.290555,147.639359 C376.327796,147.639359 379.057468,148.10712 381.550055,148.965749 C370.560884,155.668182 360.122773,162.844784 353.740723,169.239649 C334.024291,188.975304 333.08877,215.022524 346.025876,227.966038 C361.756731,243.722523 384.042643,235.764184 398.062647,221.801849 C414.421454,205.430226 419.175953,174.468316 409.750256,153.329379 C421.20078,147.325383 430.78667,142.88486 433.042173,141.789147 C440.212367,151.535228 452.05376,159.179591 471.5267,159.179591 C485.469812,159.179591 499.573116,154.2649 510.55588,145.922101 C512.119354,144.441926 512.503815,142.019823 511.260725,140.308973 L511.254317,140.302565 Z M88.1551954,133.593724 C83.7082653,138.040654 78.2553295,140.456349 72.7255015,140.456349 C67.586542,140.456349 63.1460197,138.117546 59.4039344,134.369053 C46.7808045,121.739516 47.8701101,90.6238207 64.1584331,74.3226823 C68.7527398,69.721968 74.35946,67.0691884 80.0494799,67.0691884 C85.1884394,67.0691884 89.6289618,69.3310995 93.371047,73.0731847 C105.21244,85.0042852 105.910877,115.812411 88.1487877,133.593724 L88.1551954,133.593724 Z M268.659546,140.379457 C255.024002,140.379457 246.142958,123.924535 248.866222,103.644227 C251.595894,83.3703267 264.840568,66.9154041 278.469704,66.9154041 C291.092834,66.9154041 299.66631,81.0315235 298.730789,99.2037044 C298.33992,101.850076 298.025944,104.349072 297.795268,106.841659 C294.130075,125.641793 281.583837,140.379457 268.659546,140.379457 Z M382.165192,211.818684 C364.326211,229.676888 341.578946,206.903993 368.138781,180.305712 C374.142777,174.301716 384.029827,167.676175 394.320562,161.595286 C400.157958,176.095867 395.563652,198.401001 382.165192,211.818684 Z M453.758203,74.7135508 C467.156662,61.2958685 482.041703,65.2750379 482.041703,78.3018517 C482.041703,91.0146892 466.849094,104.73994 448.465459,115.344651 C446.671309,116.357064 444.563182,117.523262 442.461463,118.618975 C441.756618,115.421543 441.372157,111.910134 441.372157,107.937373 C441.295265,97.0186855 445.889572,82.5885898 453.758203,74.7135508 L453.758203,74.7135508 Z" fill="#212124"></path>
    </g>
</svg>

<svg preserveAspectRatio="xMidYMid" viewBox="0 0 512 237" xmlns="http://www.w3.org/2000/svg">
  <path fill="#212124" d="M511.254 140.303s-5.062-7.1-6.625-9.125c-1.09-1.326-2.416-2.883-5.844-.545-7.708 5.146-16.359 9.9-27.028 9.9-8.182 0-15.27-2.101-20.568-6.625 2.262-1.02 4.594-2.108 6.933-3.435 12.623-6.786 23.132-15.52 28.2-20.588 24.541-24.567 16.91-61.219-13.084-61.219-28.284 0-50.557 27.528-50.557 58.182 0 4.594.538 11.226 2.486 18.166-1.634.782-12.854 6.24-26.252 13.648-12.623-9.438-32.256-5.222-32.256-5.222 18.23-25.97 45.731-66.448 48.07-69.799 1.71-2.422 1.403-4.76-.237-8.503-2.102-4.524-4.203-5.305-7.01-5.305h-57.105c-1.865 0-3.345.858-3.896 2.966-.545 2.102-1.711 9.355-1.942 11.778-.237 2.499 2.102 4.056 4.518 4.056h41.368l-37.396 53.574a7.161 7.161 0 0 0-.704.782c-5.447 7.875-13.79 18.87-23.76 18.87-6.235 0-13.943-4.446-13.943-19.03 0-14.27 5.767-44.45 9.97-68.005.468-2.499-.384-4.991-4.44-4.991h-10.124c-2.34 0-3.666 1.41-3.973 3.434-.628 3.588-1.25 7.093-1.794 10.528-4.986-9.592-13.008-15.058-24.542-15.058-10.752 0-21.19 3.985-29.757 12.559-21.35 21.37-17.3 56.234-35.755 74.713-7.952 7.959-16.916 5.537-16.916-10.137 0-17.858 6.856-37.824 14.654-56.695 1.397-3.357-.083-6.164-1.563-8.266-2.102-3.043-2.884-4.607-6.62-4.607-5.843 0-15.115 3.672-33.73 3.672-3.972 0-7.714-.16-11.149-.391.237-2.807.237-4.678.32-5.382.154-2.653-.781-4.294-3.588-4.294h-9.502c-3.428 0-4.287 1.64-4.678 4.37-1.634 11.387-4.671 53.268-25.708 74.246-2.415 2.416-3.895 3.198-3.895 3.198 5.222-10.22 8.028-23.632 8.028-34.313 0-29.95-17.685-48.507-39.964-48.507-6.78 0-13.95 2.179-20.723 6.389 3.114-18.25 5.998-35.326 7.01-41.099.859-4.915-.858-7.407-2.178-9.439C61.89 1.487 60.032 0 57.219 0H24.34c-1.87 0-3.268 1.326-3.742 3.435-.545 2.415-1.71 8.81-1.865 11.77-.16 2.576 1.634 3.589 3.736 3.589h23.997c-3.813 23.56-11.137 69.183-13.322 80.64-2.793 14.584-13.161 32.442-30.603 38.844-2.178.781-3.037 2.806-2.262 5.152.782 2.338 3.82 8.42 4.755 9.976.935 1.64 2.96 2.653 4.831 2.032 9.035-3.204 17.365-8.343 23.914-14.898a52.007 52.007 0 0 0 4.677-5.383c7.786 17.628 23.837 24.029 40.112 24.029 18.467 0 38.414-6.478 52.434-20.44 16.366-16.379 23.138-43.361 26.099-62.54 4.05.539 8.65 1.007 13.09 1.007 11.214 0 20.646-2.416 20.646-2.416s-11.296 30.103-11.296 52.254c0 25.035 11.995 32.129 25.162 32.129 13.63 0 23.216-10.214 29.988-22.927 1.795 3.973 4.447 8.65 8.03 12.239 6.15 6.164 13.789 10.688 24.848 10.688 12.623 0 23.452-7.254 31.167-18.48 1.397 4.754 3.505 8.65 6.389 11.534 3.89 3.908 11.06 6.946 19.94 6.946 15.347 0 24.305-11.54 48.225-11.54 3.037 0 5.766.467 8.26 1.326-10.99 6.702-21.428 13.879-27.81 20.274-19.717 19.735-20.652 45.783-7.715 58.726 15.73 15.757 38.017 7.798 52.037-6.164 16.358-16.372 21.113-47.334 11.687-68.473 11.45-6.004 21.037-10.444 23.292-11.54 7.17 9.746 19.012 17.39 38.485 17.39 13.943 0 28.046-4.914 39.029-13.257 1.563-1.48 1.948-3.902.705-5.613l-.007-.006Zm-423.099-6.71c-4.447 4.448-9.9 6.863-15.43 6.863-5.138 0-9.579-2.338-13.321-6.087-12.623-12.63-11.534-43.745 4.754-60.046 4.595-4.601 10.201-7.254 15.891-7.254 5.14 0 9.58 2.262 13.322 6.004 11.841 11.931 12.54 42.74-5.222 60.52h.006Zm180.505 6.786c-13.636 0-22.517-16.454-19.794-36.735 2.73-20.274 15.975-36.729 29.604-36.729 12.623 0 21.196 14.117 20.26 32.289-.39 2.646-.704 5.145-.935 7.638-3.665 18.8-16.211 33.537-29.135 33.537Zm113.505 71.44c-17.839 17.858-40.586-4.915-14.026-31.513 6.004-6.004 15.89-12.63 26.182-18.71 5.837 14.5 1.243 36.805-12.156 50.223Zm71.593-137.105c13.399-13.418 28.284-9.439 28.284 3.588 0 12.713-15.193 26.438-33.577 37.043a210.079 210.079 0 0 1-6.004 3.274c-.704-3.197-1.089-6.709-1.089-10.682-.077-10.918 4.518-25.348 12.386-33.223Z"/>
</svg>
